packages/kaspersky-hexa-ui-icons/src/iconsSVGs/64x42/FlagGd.svg

<svg width="64" height="42" viewBox="0 0 64 42" fill="none" xmlns="http://www.w3.org/2000/svg">
<g clip-path="url(#clip0_37941_2253)">
<rect width="64" height="42" rx="5" fill="white"/>
<rect x="-0.400024" width="64.4" height="42" fill="#E42235"/>
<rect x="5.646" y="5.60004" width="52.83" height="30.8" fill="#079B77"/>
<path fill-rule="evenodd" clip-rule="evenodd" d="M32.061 21L58.476 5.60004H5.646L32.061 21L5.64606 36.4H58.476L32.061 21Z" fill="#FFD93B"/>
<circle cx="31.9999" cy="21" r="7" fill="url(#paint0_linear_37941_2253)"/>
<path fill-rule="evenodd" clip-rule="evenodd" d="M11.8255 21.2769C12.6182 22.5456 13.7564 23.383 14.8165 23.5979C15.4001 23.7162 14.3316 21.0398 14.7972 20.7488C15.1945 20.5005 17.106 22.7263 17.2734 22.2619C17.6586 21.1935 17.4314 19.6805 16.5746 18.3094C15.3454 16.3422 15.2974 17.6406 11.9744 16.2313C12.3218 18.2467 10.5963 19.3098 11.8255 21.2769Z" fill="#FFD938"/>
<path fill-rule="evenodd" clip-rule="evenodd" d="M31.9998 23.1597L28.7082 25.5306L29.9458 21.6674L26.6739 19.2696L30.7304 19.2529L31.9998 15.4001L33.2692 19.2529L37.3257 19.2696L34.0537 21.6674L35.2914 25.5306L31.9998 23.1597Z" fill="#FFD938"/>
</g>
<defs>
<linearGradient id="paint0_linear_37941_2253" x1="24.9999" y1="14" x2="24.9999" y2="28" gradientUnits="userSpaceOnUse">
<stop stop-color="#E21C30"/>
<stop offset="1" stop-color="#CE1225"/>
</linearGradient>
<clipPath id="clip0_37941_2253">
<rect width="64" height="42" rx="5" fill="white"/>
</clipPath>
</defs>
</svg>

<svg xmlns="http://www.w3.org/2000/svg" width="64" height="42" fill="none" viewBox="0 0 64 42"><g clip-path="url(#a)"><rect width="64" height="42" fill="#fff" rx="5"/><path fill="#e42235" d="M-.4 0H64v42H-.4z"/><path fill="#079b77" d="M5.646 5.6h52.83v30.8H5.646z"/><path fill="#ffd93b" fill-rule="evenodd" d="M32.061 21 58.476 5.6H5.646zL5.646 36.4h52.83z" clip-rule="evenodd"/><circle cx="32" cy="21" r="7" fill="url(#b)"/><path fill="#ffd938" fill-rule="evenodd" d="M11.826 21.277c.793 1.269 1.931 2.106 2.991 2.321.584.118-.485-2.558-.019-2.849.397-.248 2.309 1.978 2.476 1.513.385-1.068.158-2.581-.699-3.952-1.229-1.967-1.277-.669-4.6-2.078.347 2.015-1.378 3.079-.149 5.046M32 23.16l-3.292 2.371 1.238-3.863-3.272-2.398 4.057-.017L32 15.4l1.269 3.853 4.057.017-3.272 2.398 1.238 3.863z" clip-rule="evenodd"/></g><defs><linearGradient id="b" x1="25" x2="25" y1="14" y2="28" gradientUnits="userSpaceOnUse"><stop stop-color="#e21c30"/><stop offset="1" stop-color="#ce1225"/></linearGradient><clipPath id="a"><rect width="64" height="42" fill="#fff" rx="5"/></clipPath></defs></svg>
